X:1
T:Kottpolska
C:Hoven Droven
R:Slip jig
S:Groove
O:Sweden
Z:Northman
N:This is intended for wind instruments.
Q:120
K:G
L:1/16
B,|E2^D B,2^D F2A|G2F =D2F A2z|AGA BzG EzG|FE^D B,3 B,^C^D|
E2^D B,2^D F2A|G2F =D2F A2z|AGA BzG EzG|FE^D E4 zB,|
E2^D B,2^D F2A|G2F =D2F A2z|AGA BzG EzG|FE^D B,3 B,^C^D|
E2^D B,2^D F2A|G2F =D2F A2z|AGA BzG EzG|FE^D E4 zB,|
B,zB BzB Bzc|BzA B3 G3|FGA czB AzG|FGz E^Dz B,3-|
B,zB BzB Bzc|BzA B3 G3|FGA czB AzG|FGz E4 zB,|
B,zB BzB Bzc|BzA B3 G3|FGA czB AzG|FGz E^Dz B,3-|
B,zB BzB Bzc|BzA B3 G3|FGA czB AzG|FGz E4 zB,|
E2^D B,2^D F2A|G2F =D2F A2z|AGA BzG EzG|FE^D B,3 B,^C^D|
E2^D B,2^D F2A|G2F =D2F A2z|AGA BzG EzG|FE^D E4 zB,|
E2^D B,2^D F2A|G2F =D2F A2z|AGA BzG EzG|FE^D B,3 B,^C^D|
E2^D B,2^D F2A|G2F =D2F A2z|AGA BzG EzG|FE^D E4 zB,|
B,zB BzB Bzc|BzA B3 G3|FGA czB AzG|FGz E^Dz B,3-|
B,zB BzB Bzc|BzA B3 G3|FGA czB AzG|FGz E4 zB,|
B,zB BzB Bzc|BzA B3 G3|FGA czB AzG|FGz E^Dz B,3-|
B,zB BzB Bzc|BzA B3 G3|FGA czB AzG|FzG z3 z3|E9-|E9|]



